X: 34196
T: Reel Of Rio, The
R: reel
M: 4/4
K: Gmajor
|:GE|"G"DEGA BABd|"Em"egggagef|"G"gede gedB|"Am"AcBA "D7"GEDE|
"G"DEGA Bddd|"Em"eggg agef|"G"gede gedB|"D7"AcBA "G"G2:|
|:Bc|"G"dggg aggg|bgag edBd|"Em"eBBA GABd|e2dB AGEG|
"G"DEGA BABd|"Em"eggg agef|"G"gbaf "Em"gedB|"D7"AcBA "G"G2:|

